X: 2354
T: CITY OF SAVANNAH
C: F. Livingston
R: Hornpipe.
%R: hornpipe, reel
B: James Kerr "Merry Melodies" v.2 p.39 #354
Z: 2016 John Chambers <jc:trillian.mit.edu>
M: C
L: 1/8
K: D
|:\
(3(ABA) FA (df)af | gaba gfed |\
(cd)ed cdBc | (AB)GA FFG^G |\
(3(ABA) FA (df)af | gaba gfed |\
cbag feBc | d2f2 d2z2 :|
|:\
(3(efe) ce (ad)c'e | be^ge aebe |\
(3(efe) ce (ae)c'e | be^ge a2z2 |\
(3(aba) =ga (ea)Aa | (3(aba) fa (da)Aa |\
(3(=gag) Bg (3(fgf) Af | eabc' d'2z2 :|
